humanity-icon-theme/Humanity/actions/22/bookmark-new.svg

<?xml version="1.0" encoding="UTF-8" standalone="no"?>
<!-- Created with Inkscape (http://www.inkscape.org/) -->

<svg
   xmlns:dc="http://purl.org/dc/elements/1.1/"
   xmlns:cc="http://creativecommons.org/ns#"
   xmlns:rdf="http://www.w3.org/1999/02/22-rdf-syntax-ns#"
   xmlns:svg="http://www.w3.org/2000/svg"
   xmlns="http://www.w3.org/2000/svg"
   xmlns:xlink="http://www.w3.org/1999/xlink"
   xmlns:sodipodi="http://sodipodi.sourceforge.net/DTD/sodipodi-0.dtd"
   xmlns:inkscape="http://www.inkscape.org/namespaces/inkscape"
   width="22"
   height="22"
   id="svg2876"
   version="1.1"
   inkscape:version="0.47 r22583"
   sodipodi:docname="bookmark-new.svg">
  <defs
     id="defs2878">
    <linearGradient
       inkscape:collect="always"
       xlink:href="#linearGradient3642"
       id="linearGradient2907"
       gradientUnits="userSpaceOnUse"
       gradientTransform="matrix(0.77056228,0,0,0.77077837,-4.5546733,17.801037)"
       x1="23.470181"
       y1="11.209872"
       x2="23.470181"
       y2="35.051075" />
    <linearGradient
       id="linearGradient3642">
      <stop
         style="stop-color:#ffffff;stop-opacity:1;"
         offset="0"
         id="stop3644" />
      <stop
         style="stop-color:#ffffff;stop-opacity:0;"
         offset="1"
         id="stop3646" />
    </linearGradient>
    <linearGradient
       inkscape:collect="always"
       xlink:href="#linearGradient8265-821-176-38-919-66-249"
       id="linearGradient3683"
       gradientUnits="userSpaceOnUse"
       gradientTransform="matrix(0.4893617,0,0,0.4893617,1.7131795,22.728095)"
       x1="11.566265"
       y1="22.292103"
       x2="15.214532"
       y2="33.95525" />
    <linearGradient
       id="linearGradient8265-821-176-38-919-66-249">
      <stop
         id="stop2687"
         style="stop-color:#ffffff;stop-opacity:0.27450982"
         offset="0" />
      <stop
         id="stop2689"
         style="stop-color:#ffffff;stop-opacity:0"
         offset="1" />
    </linearGradient>
    <linearGradient
       id="linearGradient3690">
      <stop
         id="stop3692"
         style="stop-color:#ffeb9f;stop-opacity:1"
         offset="0" />
      <stop
         id="stop3694"
         style="stop-color:#ffd57e;stop-opacity:1"
         offset="0.26238" />
      <stop
         id="stop3696"
         style="stop-color:#ffbc43;stop-opacity:1"
         offset="0.66093999" />
      <stop
         id="stop3698"
         style="stop-color:#ff921a;stop-opacity:1"
         offset="1" />
    </linearGradient>
    <linearGradient
       id="linearGradient3603">
      <stop
         id="stop3605"
         style="stop-color:#a7651c;stop-opacity:1"
         offset="0" />
      <stop
         id="stop3607"
         style="stop-color:#c8a700;stop-opacity:1"
         offset="1" />
    </linearGradient>
    <radialGradient
       r="13.931416"
       fy="25.625349"
       fx="13.138569"
       cy="25.625349"
       cx="13.138569"
       gradientTransform="matrix(0,1.2347038,-1.4762672,0,45.15859,-17.609815)"
       gradientUnits="userSpaceOnUse"
       id="radialGradient2872"
       xlink:href="#linearGradient3690"
       inkscape:collect="always" />
    <linearGradient
       y2="9.5799999"
       x2="21.483376"
       y1="36.255058"
       x1="21.483376"
       gradientTransform="matrix(0.77056228,0,0,0.77077837,-5.5542786,-12.199358)"
       gradientUnits="userSpaceOnUse"
       id="linearGradient2874"
       xlink:href="#linearGradient3603"
       inkscape:collect="always" />
    <linearGradient
       inkscape:collect="always"
       xlink:href="#linearGradient3943"
       id="linearGradient5530"
       gradientUnits="userSpaceOnUse"
       gradientTransform="matrix(0.2817955,0,0,0.2800956,10.178741,4.0221797)"
       x1="24.138529"
       y1="7.0478544"
       x2="24.138529"
       y2="39.268391" />
    <linearGradient
       id="linearGradient3943">
      <stop
         style="stop-color:#ffffff;stop-opacity:1;"
         offset="0"
         id="stop3945" />
      <stop
         style="stop-color:#ffffff;stop-opacity:0;"
         offset="1"
         id="stop3947" />
    </linearGradient>
    <linearGradient
       id="linearGradient3242-7">
      <stop
         offset="0"
         style="stop-color:#eef87e;stop-opacity:1"
         id="stop3244-5" />
      <stop
         offset="0.26238"
         style="stop-color:#cde34f;stop-opacity:1"
         id="stop3246-9" />
      <stop
         offset="0.66093999"
         style="stop-color:#93b723;stop-opacity:1"
         id="stop3248-7" />
      <stop
         offset="1"
         style="stop-color:#5a7e0d;stop-opacity:1"
         id="stop3250-8" />
    </linearGradient>
    <linearGradient
       id="linearGradient2490-3">
      <stop
         offset="0"
         style="stop-color:#365f0e;stop-opacity:1"
         id="stop2492-3" />
      <stop
         offset="1"
         style="stop-color:#84a718;stop-opacity:1"
         id="stop2494-8" />
    </linearGradient>
    <radialGradient
       r="31.000002"
       fy="51.694645"
       fx="69.447609"
       cy="51.694645"
       cx="69.447609"
       gradientTransform="matrix(0,0.35684158,-0.38820022,0,35.349285,-18.114114)"
       gradientUnits="userSpaceOnUse"
       id="radialGradient3031"
       xlink:href="#linearGradient3242-7"
       inkscape:collect="always" />
    <linearGradient
       y2="51.244411"
       x2="72.421684"
       y1="124.75623"
       x1="72.421684"
       gradientTransform="matrix(0.1482266,0,0,0.1494387,3.4435041,-2.643318)"
       gradientUnits="userSpaceOnUse"
       id="linearGradient3033"
       xlink:href="#linearGradient2490-3"
       inkscape:collect="always" />
  </defs>
  <sodipodi:namedview
     id="base"
     pagecolor="#ffffff"
     bordercolor="#666666"
     borderopacity="1.0"
     inkscape:pageopacity="0.0"
     inkscape:pageshadow="2"
     inkscape:zoom="22.197802"
     inkscape:cx="8"
     inkscape:cy="11.567927"
     inkscape:current-layer="layer1"
     showgrid="true"
     inkscape:grid-bbox="true"
     inkscape:document-units="px"
     inkscape:window-width="1440"
     inkscape:window-height="781"
     inkscape:window-x="0"
     inkscape:window-y="24"
     inkscape:window-maximized="1" />
  <metadata
     id="metadata2881">
    <rdf:RDF>
      <cc:Work
         rdf:about="">
        <dc:format>image/svg+xml</dc:format>
        <dc:type
           rdf:resource="http://purl.org/dc/dcmitype/StillImage" />
        <dc:title></dc:title>
      </cc:Work>
    </rdf:RDF>
  </metadata>
  <g
     id="layer1"
     inkscape:label="Layer 1"
     inkscape:groupmode="layer"
     transform="translate(0,6)">
    <path
       style="fill:url(#radialGradient2872);fill-opacity:1;fill-rule:nonzero;stroke:url(#linearGradient2874);stroke-width:0.99227142;stroke-linecap:butt;stroke-linejoin:round;stroke-miterlimit:4;stroke-opacity:1;stroke-dasharray:none;stroke-dashoffset:0;marker:none;visibility:visible;display:inline;overflow:visible"
       id="path1307"
       d="m 11.000001,-4.5038643 c 0.708911,0 2.994425,5.710702 3.567948,6.127507 0.57352,0.416804 6.709462,0.826364 6.928527,1.500768 0.219066,0.674404 -4.504349,4.6133713 -4.723415,5.2877753 -0.219065,0.674404 1.287639,6.638229 0.714118,7.055033 C 16.913658,15.884024 11.708912,12.607738 11,12.607738 c -0.708911,0 -5.9136574,3.276286 -6.4871791,2.859481 C 3.9392998,15.050415 5.4460042,9.086589 5.2269387,8.412186 5.007873,7.737782 0.28445849,3.7988137 0.50352419,3.1244097 0.72258979,2.4500067 6.8585305,2.0404467 7.4320523,1.6236427 8.005573,1.2068377 10.29109,-4.5038643 11.000001,-4.5038643 z" />
    <path
       transform="translate(-0.99960537,-30.000395)"
       sodipodi:type="inkscape:offset"
       inkscape:radius="-0.43666568"
       inkscape:original="M 12 25.25 C 12 25.25 10.173251 27.882382 8.53125 31.75 C 6.1607961 32.136528 2.957408 32.566821 1.21875 33.09375 C 2.4668947 34.731341 4.0824747 36.137238 5.5 37.59375 L 21.03125 34.8125 C 21.528814 34.313774 22.75 33.09375 22.75 33.09375 C 20.496545 32.449822 17.807954 32.136529 15.4375 31.75 C 14.204995 28.888578 12 25.25 12 25.25 z "
       style="opacity:0.8;fill:url(#linearGradient3683);fill-opacity:1;fill-rule:nonzero;stroke:none;stroke-width:1;marker:none;visibility:visible;display:inline;overflow:visible;enable-background:accumulate"
       id="path3681"
       d="m 11.96875,26.09375 c -0.45703,0.693479 -1.679762,2.629165 -3.03125,5.8125 A 0.43670935,0.43670935 0 0 1 8.59375,32.1875 c -2.1354674,0.348211 -4.8091853,0.716906 -6.5625,1.15625 1.1001782,1.3189 2.393494,2.529956 3.625,3.78125 L 20.8125,34.40625 c 0.353244,-0.353813 0.697176,-0.697415 1.0625,-1.0625 -2.051482,-0.507486 -4.36574,-0.808235 -6.5,-1.15625 a 0.43670935,0.43670935 0 0 1 -0.34375,-0.25 c -1.039472,-2.413271 -2.582922,-5.037031 -3.0625,-5.84375 z" />
    <path
       transform="translate(-0.99960537,-30.000395)"
       sodipodi:type="inkscape:offset"
       inkscape:radius="-0.95096236"
       inkscape:original="M 12 25.5 C 11.291089 25.5 9.0110207 31.208195 8.4375 31.625 C 7.8639782 32.041804 1.7190656 32.450597 1.5 33.125 C 1.2809343 33.799404 5.9996843 37.731846 6.21875 38.40625 C 6.4378155 39.080653 4.9264789 45.051946 5.5 45.46875 C 6.0735217 45.885555 11.291089 42.59375 12 42.59375 C 12.708912 42.59375 17.926479 45.885555 18.5 45.46875 C 19.073521 45.051946 17.562185 39.080654 17.78125 38.40625 C 18.000316 37.731846 22.719066 33.799404 22.5 33.125 C 22.280935 32.450596 16.13602 32.041804 15.5625 31.625 C 14.988977 31.208195 12.708911 25.5 12 25.5 z "
       style="opacity:0.4;fill:none;stroke:url(#linearGradient2907);stroke-width:0.99227142;stroke-linecap:butt;stroke-linejoin:round;stroke-miterlimit:4;stroke-opacity:1;stroke-dasharray:none;stroke-dashoffset:0;marker:none;visibility:visible;display:inline;overflow:visible"
       id="path2903"
       d="m 12,26.9375 c -0.289389,0.492394 -0.61844,1.165503 -0.96875,1.875 -0.361907,0.732986 -0.746865,1.511515 -1.0625,2.125 C 9.8109327,31.244242 9.6704356,31.520046 9.53125,31.75 9.3920644,31.979954 9.3680081,32.138801 9,32.40625 c -0.3684354,0.267759 -0.5505426,0.251058 -0.8125,0.3125 -0.2619574,0.06144 -0.5652425,0.100734 -0.90625,0.15625 -0.6820149,0.111033 -1.5021108,0.22551 -2.3125,0.34375 -0.7742066,0.112961 -1.5055387,0.221892 -2.0625,0.34375 0.3780266,0.425859 0.9075435,0.983352 1.46875,1.53125 0.5845803,0.570717 1.1708703,1.135202 1.65625,1.625 0.2426898,0.244899 0.4494983,0.484046 0.625,0.6875 0.1755017,0.203454 0.3283605,0.286554 0.46875,0.71875 0.1407051,0.433167 0.085066,0.575594 0.0625,0.84375 C 7.1649339,39.236906 7.115147,39.533479 7.0625,39.875 6.9572061,40.558043 6.7943936,41.380117 6.65625,42.1875 6.5239085,42.960973 6.3999,43.713286 6.34375,44.28125 6.869114,44.051705 7.547246,43.7136 8.25,43.34375 8.9758699,42.961734 9.7261784,42.562086 10.34375,42.25 c 0.308786,-0.156043 0.564288,-0.301637 0.8125,-0.40625 0.248212,-0.104613 0.387156,-0.1875 0.84375,-0.1875 0.456594,0 0.595538,0.08289 0.84375,0.1875 0.248212,0.104613 0.503714,0.250207 0.8125,0.40625 0.617572,0.312086 1.36788,0.711734 2.09375,1.09375 0.702754,0.36985 1.380886,0.707955 1.90625,0.9375 -0.05615,-0.567964 -0.180159,-1.320277 -0.3125,-2.09375 -0.138144,-0.807383 -0.300956,-1.629457 -0.40625,-2.3125 -0.05265,-0.341521 -0.102434,-0.638094 -0.125,-0.90625 -0.02257,-0.268156 -0.0782,-0.410584 0.0625,-0.84375 0.14039,-0.432195 0.293248,-0.515296 0.46875,-0.71875 0.175502,-0.203454 0.38231,-0.442601 0.625,-0.6875 0.48538,-0.489798 1.07167,-1.054283 1.65625,-1.625 0.561206,-0.547898 1.090723,-1.105391 1.46875,-1.53125 -0.556961,-0.121858 -1.288293,-0.230789 -2.0625,-0.34375 C 18.220861,33.10051 17.400765,32.986033 16.71875,32.875 16.377743,32.819484 16.074457,32.780192 15.8125,32.71875 15.550543,32.657308 15.368436,32.67401 15,32.40625 14.631991,32.138801 14.607936,31.979954 14.46875,31.75 14.329564,31.520046 14.189067,31.244242 14.03125,30.9375 13.715615,30.324015 13.330657,29.545486 12.96875,28.8125 12.618441,28.103003 12.289388,27.429894 12,26.9375 z" />
    <path
       style="color:#000000;fill:url(#radialGradient3031);fill-opacity:1;fill-rule:nonzero;stroke:url(#linearGradient3033);stroke-width:0.98542744;stroke-linecap:round;stroke-linejoin:round;stroke-miterlimit:4;stroke-opacity:1;stroke-dasharray:none;stroke-dashoffset:0;marker:none;visibility:visible;display:inline;overflow:visible;enable-background:accumulate"
       d="m 14.482179,8.5072947 0,-3 4,0 0,3 3,0 0,4.0000003 -3,0 0,2.999991 -4,0 0,-2.999991 -2.989465,0 0,-4.0000003 2.989465,0 z"
       id="path2262"
       sodipodi:nodetypes="ccccccccccccc" />
    <path
       style="opacity:0.4;fill:none;stroke:url(#linearGradient5530);stroke-width:1;stroke-linecap:butt;stroke-linejoin:miter;stroke-miterlimit:4;stroke-opacity:1;stroke-dasharray:none;display:inline"
       d="m 15.482179,9.5072947 0,-3 2,0 0,3 3,0 0,2.0000003 -3,0 0,3 -2,0 0,-3 -3,0 0,-2.0000003 3,0 z"
       id="path2272"
       sodipodi:nodetypes="ccccccccccccc" />
  </g>
</svg>

<?xml version="1.0" encoding="UTF-8" standalone="no"?>
<!-- Created with Inkscape (http://www.inkscape.org/) -->
<svg id="svg2876" xmlns:rdf="http://www.w3.org/1999/02/22-rdf-syntax-ns#" xmlns="http://www.w3.org/2000/svg" height="22" width="22" version="1.1" xmlns:cc="http://creativecommons.org/ns#" xmlns:xlink="http://www.w3.org/1999/xlink" xmlns:dc="http://purl.org/dc/elements/1.1/">
 <defs id="defs2878">
  <linearGradient id="linearGradient2907" y2="35.051" gradientUnits="userSpaceOnUse" x2="23.47" gradientTransform="matrix(.77056 0 0 .77078 -4.5547 17.801)" y1="11.21" x1="23.47">
   <stop id="stop3644" style="stop-color:#fff" offset="0"/>
   <stop id="stop3646" style="stop-color:#fff;stop-opacity:0" offset="1"/>
  </linearGradient>
  <linearGradient id="linearGradient3683" y2="33.955" gradientUnits="userSpaceOnUse" x2="15.215" gradientTransform="matrix(.48936 0 0 .48936 1.7132 22.728)" y1="22.292" x1="11.566">
   <stop id="stop2687" style="stop-color:#fff;stop-opacity:.27451" offset="0"/>
   <stop id="stop2689" style="stop-color:#fff;stop-opacity:0" offset="1"/>
  </linearGradient>
  <radialGradient id="radialGradient2872" gradientUnits="userSpaceOnUse" cx="13.139" cy="25.625" r="13.931" gradientTransform="matrix(0 1.2347 -1.4763 0 45.159 -17.61)">
   <stop id="stop3692" style="stop-color:#ffeb9f" offset="0"/>
   <stop id="stop3694" style="stop-color:#ffd57e" offset=".26238"/>
   <stop id="stop3696" style="stop-color:#ffbc43" offset=".66094"/>
   <stop id="stop3698" style="stop-color:#ff921a" offset="1"/>
  </radialGradient>
  <linearGradient id="linearGradient2874" y2="9.58" gradientUnits="userSpaceOnUse" y1="36.255" gradientTransform="matrix(.77056 0 0 .77078 -5.5543 -12.199)" x2="21.483" x1="21.483">
   <stop id="stop3605" style="stop-color:#a7651c" offset="0"/>
   <stop id="stop3607" style="stop-color:#c8a700" offset="1"/>
  </linearGradient>
  <linearGradient id="linearGradient5530" y2="39.268" gradientUnits="userSpaceOnUse" x2="24.139" gradientTransform="matrix(.28180 0 0 .28010 10.179 4.0222)" y1="7.0479" x1="24.139">
   <stop id="stop3945" style="stop-color:#fff" offset="0"/>
   <stop id="stop3947" style="stop-color:#fff;stop-opacity:0" offset="1"/>
  </linearGradient>
  <radialGradient id="radialGradient3031" gradientUnits="userSpaceOnUse" cx="69.448" cy="51.695" r="31" gradientTransform="matrix(0 .35684 -.38820 0 35.349 -18.114)">
   <stop id="stop3244-5" style="stop-color:#eef87e" offset="0"/>
   <stop id="stop3246-9" style="stop-color:#cde34f" offset=".26238"/>
   <stop id="stop3248-7" style="stop-color:#93b723" offset=".66094"/>
   <stop id="stop3250-8" style="stop-color:#5a7e0d" offset="1"/>
  </radialGradient>
  <linearGradient id="linearGradient3033" y2="51.244" gradientUnits="userSpaceOnUse" y1="124.76" gradientTransform="matrix(.14823 0 0 .14944 3.4435 -2.6433)" x2="72.422" x1="72.422">
   <stop id="stop2492-3" style="stop-color:#365f0e" offset="0"/>
   <stop id="stop2494-8" style="stop-color:#84a718" offset="1"/>
  </linearGradient>
 </defs>
 <metadata id="metadata2881">
  <rdf:RDF>
   <cc:Work rdf:about="">
    <dc:format>image/svg+xml</dc:format>
    <dc:type rdf:resource="http://purl.org/dc/dcmitype/StillImage"/>
    <dc:title/>
   </cc:Work>
  </rdf:RDF>
 </metadata>
 <g id="layer1" transform="translate(0,6)">
  <path id="path1307" style="stroke-linejoin:round;stroke:url(#linearGradient2874);stroke-width:.99227;fill:url(#radialGradient2872)" d="m11-4.5039c0.70891 0 2.9944 5.7107 3.5679 6.1275 0.57352 0.4168 6.7095 0.82636 6.9285 1.5008 0.21907 0.6744-4.5043 4.6134-4.7234 5.2878-0.21906 0.6744 1.2876 6.6382 0.71412 7.055-0.573 0.417-5.778-2.859-6.487-2.859-0.70891 0-5.9137 3.2763-6.4872 2.8595-0.5735-0.418 0.9332-6.3814 0.7141-7.0558-0.219-0.6744-4.9424-4.6134-4.7234-5.2878 0.21909-0.6744 6.355-1.084 6.9286-1.5008 0.5735-0.4168 2.8589-6.1275 3.5679-6.1275z"/>
  <path id="path3681" style="opacity:.8;fill:url(#linearGradient3683)" d="m11.969 26.094c-0.45703 0.69348-1.6798 2.6292-3.0312 5.8125a0.43671 0.43671 0 0 1 -0.344 0.282c-2.1355 0.34821-4.8092 0.71691-6.5625 1.1562 1.1002 1.3189 2.3935 2.53 3.625 3.7812l15.156-2.719c0.35324-0.35381 0.69718-0.69742 1.0625-1.0625-2.0515-0.50749-4.3657-0.80824-6.5-1.1562a0.43671 0.43671 0 0 1 -0.34375 -0.25c-1.0395-2.4133-2.5829-5.037-3.0625-5.8438z" transform="translate(-.99961 -30)"/>
  <path id="path2903" style="opacity:.4;stroke-linejoin:round;stroke:url(#linearGradient2907);stroke-width:.99227;fill:none" d="m12 26.938c-0.28939 0.49239-0.61844 1.1655-0.96875 1.875-0.36191 0.73299-0.74686 1.5115-1.0625 2.125-0.1579 0.306-0.2984 0.582-0.4376 0.812-0.1391 0.23-0.1632 0.389-0.5312 0.656-0.36844 0.26776-0.55054 0.25106-0.8125 0.3125s-0.56524 0.10073-0.90625 0.15625c-0.68201 0.11103-1.5021 0.22551-2.3125 0.34375-0.77421 0.11296-1.5055 0.22189-2.0625 0.34375 0.37803 0.42586 0.90754 0.98335 1.4688 1.5312 0.58458 0.57072 1.1709 1.1352 1.6562 1.625 0.24269 0.2449 0.4495 0.48405 0.625 0.6875s0.32836 0.28655 0.46875 0.71875c0.14071 0.43317 0.085066 0.57559 0.0625 0.84375-0.0226 0.269-0.0724 0.565-0.125 0.907-0.1053 0.683-0.2681 1.505-0.4063 2.313-0.1323 0.773-0.2563 1.525-0.3124 2.093 0.5253-0.229 1.2034-0.567 1.9062-0.937 0.7259-0.382 1.4762-0.782 2.094-1.094 0.30879-0.15604 0.56429-0.30164 0.8125-0.40625s0.38716-0.1875 0.84375-0.1875 0.59554 0.08289 0.84375 0.1875 0.50371 0.25021 0.8125 0.40625c0.61757 0.31209 1.3679 0.71173 2.0938 1.0938 0.70275 0.36985 1.3809 0.70796 1.9062 0.9375-0.05615-0.56796-0.18016-1.3203-0.3125-2.0938-0.13814-0.80738-0.30096-1.6295-0.40625-2.3125-0.05265-0.34152-0.10243-0.63809-0.125-0.90625s-0.0782-0.41058 0.0625-0.84375c0.14039-0.4322 0.29325-0.5153 0.46875-0.71875s0.38231-0.4426 0.625-0.6875c0.48538-0.4898 1.0717-1.0543 1.6562-1.625 0.56121-0.5479 1.0907-1.1054 1.4688-1.5312-0.55696-0.12186-1.2883-0.23079-2.0625-0.34375-0.811-0.118-1.631-0.233-2.313-0.344-0.341-0.056-0.645-0.095-0.907-0.156-0.261-0.062-0.444-0.045-0.812-0.313-0.368-0.267-0.392-0.426-0.531-0.656s-0.28-0.506-0.438-0.812c-0.315-0.614-0.7-1.393-1.062-2.126-0.351-0.709-0.68-1.382-0.969-1.874z" transform="translate(-.99961 -30)"/>
  <path id="path2262" style="stroke-linejoin:round;stroke-width:.98543;color:#000000;stroke:url(#linearGradient3033);stroke-linecap:round;fill:url(#radialGradient3031)" d="m14.482 8.5073v-3h4v3h3v4h-3v3h-4v-3h-2.9895v-4h2.9895z"/>
  <path id="path2272" style="opacity:.4;stroke:url(#linearGradient5530);fill:none" d="m15.482 9.5073v-3h2v3h3v2h-3v3h-2v-3h-3v-2h3z"/>
 </g>
</svg>
